X: 53
T:Billy's Forty Footer
% Nottingham Music Database
S:Bob McQuillen 1973, via PR
M:4/4
L:1/4
K:G
D|G/2B/2d/2e/2 d/2c/2B/2A/2|G/2B/2d/2e/2 dD|G/2B/2d/2e/2 d/2B/2c/2B/2|\
AD DB/2A/2|
G/2B/2d/2e/2 d/2c/2B/2d/2|c/2d/2e/2f/2 g/2a/2g/2e/2|d/2g/2f/2e/2 d/2c/2B/2A/2|\
BG G::
B/2c/2|d/2B/2e/2B/2 d/2B/2G/2B/2|d/2B/2e/2B/2 dB/2c/2|\
d/2B/2e/2B/2 d/2B/2G/2B/2|A/2G/2A/2B/2 AG/2A/2|
B/2c/2B/2A/2 B/2G/2A/2B/2|c/2d/2c/2B/2 c/2A/2B/2c/2|d/2g/2f/2e/2 d/2c/2B/2A/2|\
BG G:|<end>
<start>
